X:1
T:Title
%%score { ( 1 3 ) | ( 2 4 ) }
L:1/8
M:4/4
K:Bb
V:1 treble nm="Grand Piano"
V:3 treble 
V:2 bass 
V:4 bass 
V:1
 z4 z2[Q:1/4=96] [DB][Ec] | [Fd]2 [DF]2 [Fd]2 [FB]2 | [EG][FA][GB][EG] [DF]2 AB | c2 F2 c2 d2 | %4
 z4 c2 z2 | [Fd]2 [DF]2 [Fd]2 [B,FB]2 |[M:3/4] [B,EG][B,GB] [B,FA][B,EG] [B,DF]2 | %7
[M:1/4] [B,FB][B,FA] |[M:4/4] [B,EG]2 [Ge]2 d3 c |[M:3/4] B2 A2 [B,DB]2 |[M:1/4] B>c | %11
[M:4/4] d6 z2 |[M:3/4] e6 |[M:1/4] d>c |[M:4/4] d6 z2 | [Fc]6 z2 | %16
[M:3/4] [Fd]<[Fd] [Ge]<[Ge] [Fd]2 |[M:1/4] [Fc][FB] | %18
[M:9/8] [EG]<[GB][GB]/[Ge]/- [Ge] [Ge]2- [Ge][Ge][Ge] |[M:4/4] d2 c2 B3 c |[M:7/8] z2 A2 z z2 |] %21
V:2
 z4 z2 [B,,B,][B,,B,] | [B,,B,]2 [B,,B,]2 [B,,B,]2 [D,B,]2 | %2
 [E,B,][E,B,][E,B,][E,B,] [B,,B,]2 [F,CF][F,DF] | [F,A,E]2 [F,A,E]2 [F,A,E]2 [F,B,F]2 | %4
 [F,CF]3 [F,B,F] .[F,A,F]2 [D,B,][C,A,] | [B,,B,]2 [B,,B,]2 [B,,B,]2 D,2 |[M:3/4] E,E, E,E, B,,2 | %7
[M:1/4] D,D, |[M:4/4] E,2 [E,B,]2 [F,B,F]3 [F,EF] |[M:3/4] [F,DF]2 [F,CF]2 B,,2 | %10
[M:1/4][K:treble] D>F |[M:4/4] B6 z2 |[M:3/4] c6[K:bass] |[M:1/4][K:treble] B>A | %14
[M:4/4] B6[K:bass] z2 | [F,A,]2 F,>F, F,E,D,[C,A,] | %16
[M:3/4] [B,,B,]<[B,,B,] [B,,B,]<[B,,B,] [B,,B,]2 |[M:1/4] [C,A,][D,B,] | %18
[M:9/8] [E,B,]<[E,B,][E,B,]/[E,B,]/- [E,B,] [E,B,]2- [E,B,][E,B,][E,B,] | %19
[M:4/4] [F,B,F]2 [F,EF]2 [F,DF]3 [F,EF] |[M:7/8] z2 F z z z2 |] %21
V:3
 x8 | x8 | x8 | x8 | e3 d z E,[FB][Fc] | x8 |[M:3/4] x6 |[M:1/4] x2 |[M:4/4] x8 |[M:3/4] x6 | %10
[M:1/4] x2 |[M:4/4] z2 D>D D2 c>d |[M:3/4] z2 C>C C2 |[M:1/4] x2 |[M:4/4] z2 B,>B, B,2 [Fc]>[FB] | %15
 z2 A,>A, A,2 [B,FB][Fc] |[M:3/4] x6 |[M:1/4] x2 |[M:9/8] x9 |[M:4/4] x8 |[M:7/8] B2 z E [DB]3 |] %21
V:4
 x8 | x8 | x8 | x8 | x8 | x8 |[M:3/4] x6 |[M:1/4] x2 |[M:4/4] x8 |[M:3/4] x6 | %10
[M:1/4][K:treble] x2 |[M:4/4] z2 B,>B, B,2 A>B |[M:3/4] z2[K:bass] F,>F, F,2 | %13
[M:1/4][K:treble] x2 |[M:4/4] z2[K:bass] B,,>B,, B,,2 [C,A,]>[D,B,] | x8 |[M:3/4] x6 |[M:1/4] x2 | %18
[M:9/8] x9 |[M:4/4] x8 |[M:7/8] [F,DF]2 [F,C]2 [B,,B,]3 |] %21

